src/icons/svg/CircleMinusFilled.svg

<svg width="24" height="24" viewBox="0 0 24 24" fill="none" xmlns="http://www.w3.org/2000/svg">
<path d="M12 1.92C6.43204 1.92 1.92004 6.434 1.92004 12C1.92004 17.568 6.43304 22.08 12 22.08C17.567 22.08 22.08 17.566 22.08 12C22.08 6.434 17.566 1.92 12 1.92V1.92ZM18.06 10.774V13.228H5.94004V10.774H18.06Z" fill="#1C2125"/>
</svg>

<!-- Generated by IcoMoon.io -->
<svg version="1.1" xmlns="http://www.w3.org/2000/svg" width="24" height="24" viewBox="0 0 24 24">
<title>circle-minus-filled</title>
<path fill="#444" d="M12 1.92c-5.568 0-10.080 4.514-10.080 10.080 0 5.568 4.513 10.080 10.080 10.080s10.080-4.514 10.080-10.080c0-5.566-4.514-10.080-10.080-10.080zM18.060 10.774v2.454h-12.12v-2.454h12.12z"></path>
</svg>
